X: 4275
T: Bob's Bucket
R: jig
M: 6/8
K: Dmajor
|:D3 d2A|BdB AFE|D3 d2e|fed edc|
(B/2c/2)dB AFD|EDE FDA,|B,DB, A,DA,|B,DB, CEC:|
|:zde fed|cBc d3|ABB BAG|g2f edc|
Aaa fed|g2f edc|Bdd Add|Bdd cde:|

